assets/svg/check_icon.svg

<svg fill="none" height="18" viewBox="0 0 19 18" width="19" xmlns="http://www.w3.org/2000/svg"><g fill="#101820"><path d="m9.5 16.875c-2.08858 0-4.09162-.8297-5.56847-2.3065-1.47684-1.4769-2.30653-3.4799-2.30653-5.5685 0-2.08858.82969-4.09162 2.30653-5.56847 1.47685-1.47684 3.47989-2.30653 5.56847-2.30653 2.0886 0 4.0916.82969 5.5685 2.30653 1.4768 1.47685 2.3065 3.47989 2.3065 5.56847 0 2.0886-.8297 4.0916-2.3065 5.5685-1.4769 1.4768-3.4799 2.3065-5.5685 2.3065zm0 1.125c2.3869 0 4.6761-.9482 6.364-2.636 1.6878-1.6879 2.636-3.9771 2.636-6.364 0-2.38695-.9482-4.67613-2.636-6.36396-1.6879-1.687828-3.9771-2.63604-6.364-2.63604-2.38695 0-4.67613.948212-6.36396 2.63604-1.68783 1.68783-2.63604 3.97701-2.63604 6.36396 0 2.3869.94821 4.6761 2.63604 6.364 1.68783 1.6878 3.97701 2.636 6.36396 2.636z"/><path d="m12.841 5.59111c-.008.00777-.0155.01603-.0225.02475l-3.90714 4.97814-2.35462-2.35576c-.15995-.14904-.3715-.23018-.59009-.22633-.21859.00386-.42715.09241-.58174.247s-.24314.36315-.24699.58174c-.00386.21859.07728.43014.22632.59008l2.97675 2.97787c.08019.0801.17568.1431.28078.1855.1051.0423.21765.063.33093.0609.11329-.0021.22499-.0269.32845-.0732.10345-.0462.19654-.1127.27371-.1957l4.49104-5.61374c.1529-.1605.2365-.37474.2327-.5964-.0038-.22165-.0946-.43292-.2529-.58812s-.3714-.24186-.593-.24125c-.2217.00062-.4343.08845-.5917.24452z"/></g></svg>

<svg width="19" height="18" viewBox="0 0 19 18" fill="none" xmlns="http://www.w3.org/2000/svg">
<path d="M9.5 16.875C7.41142 16.875 5.40838 16.0453 3.93153 14.5685C2.45469 13.0916 1.625 11.0886 1.625 9C1.625 6.91142 2.45469 4.90838 3.93153 3.43153C5.40838 1.95469 7.41142 1.125 9.5 1.125C11.5886 1.125 13.5916 1.95469 15.0685 3.43153C16.5453 4.90838 17.375 6.91142 17.375 9C17.375 11.0886 16.5453 13.0916 15.0685 14.5685C13.5916 16.0453 11.5886 16.875 9.5 16.875ZM9.5 18C11.8869 18 14.1761 17.0518 15.864 15.364C17.5518 13.6761 18.5 11.3869 18.5 9C18.5 6.61305 17.5518 4.32387 15.864 2.63604C14.1761 0.948212 11.8869 0 9.5 0C7.11305 0 4.82387 0.948212 3.13604 2.63604C1.44821 4.32387 0.5 6.61305 0.5 9C0.5 11.3869 1.44821 13.6761 3.13604 15.364C4.82387 17.0518 7.11305 18 9.5 18Z" fill="#101820"/>
<path d="M12.841 5.59111C12.833 5.59888 12.8255 5.60714 12.8185 5.61586L8.91136 10.594L6.55674 8.23824C6.39679 8.0892 6.18524 8.00806 5.96665 8.01191C5.74806 8.01577 5.5395 8.10432 5.38491 8.25891C5.23032 8.4135 5.14177 8.62206 5.13792 8.84065C5.13406 9.05924 5.2152 9.27079 5.36424 9.43073L8.34099 12.4086C8.42118 12.4887 8.51667 12.5517 8.62177 12.5941C8.72687 12.6364 8.83942 12.6571 8.9527 12.655C9.06599 12.6529 9.17769 12.6281 9.28115 12.5818C9.3846 12.5356 9.47769 12.4691 9.55486 12.3861L14.0459 6.77236C14.1988 6.61186 14.2824 6.39762 14.2786 6.17596C14.2748 5.95431 14.184 5.74304 14.0257 5.58784C13.8674 5.43264 13.6543 5.34598 13.4327 5.34659C13.211 5.34721 12.9984 5.43504 12.841 5.59111Z" fill="#101820"/>
</svg>
